symbolic/32x32/apps/mattermost.svg

<svg xmlns="http://www.w3.org/2000/svg" width="32" height="32" version="1.1">
 <circle style="opacity:.2" cx="16" cy="17" r="14"/>
 <circle style="fill:#248afd" cx="16" cy="16" r="14"/>
 <path style="opacity:.2;fill:#ffffff" d="m16 2a14 14 0 0 0 -14 14 14 14 0 0 0 0.0215 0.586 14 14 0 0 1 13.9785 -13.586 14 14 0 0 1 13.979 13.414 14 14 0 0 0 0.021 -0.414 14 14 0 0 0 -14 -14z"/>
 <path style="opacity:0.2" d="M 16,7 A 10,10 0 0 0 6,17 10,10 0 0 0 16,27 10,10 0 0 0 26,17 10,10 0 0 0 20.732422,8.2011719 c 0.08232,0.1604117 0.155017,0.3470364 0.203125,0.578125 A 2.0002,2.0002 0 0 1 20.978516,9.1875 l 0,1.896484 A 7,7 0 0 1 23,16 7,7 0 0 1 16,23 7,7 0 0 1 9,16 7,7 0 0 1 15.757812,9.0078125 c 0.211478,-0.2423601 0.477177,-0.5420631 0.591797,-0.6757813 0.155495,-0.1814017 0.306173,-0.3480139 0.447266,-0.4960937 0.07055,-0.07404 0.136963,-0.1424831 0.220703,-0.2207031 0.08374,-0.07822 -0.138861,-0.1042048 0.666016,-0.4433594 0.02246,-0.00946 0.03301,-0.00874 0.05469,-0.017578 A 10,10 0 0 0 16,7 Z m 2.460938,2.015625 c -0.05544,0.023361 -0.32082,0.3030162 -0.591797,0.6191406 -0.270975,0.3161237 -0.864156,0.9920534 -1.316407,1.5039064 -0.45225,0.511851 -1.310787,1.491414 -1.90625,2.175781 -1.169833,1.344488 -1.356119,1.615337 -1.548828,2.253906 -0.120354,0.398827 -0.130942,1.041863 -0.02344,1.416016 0.294746,1.025699 1.280161,1.794662 2.550781,1.992187 0.05776,0.009 0.256613,0.02101 0.441406,0.02344 0.769919,0.01057 1.425436,-0.236712 1.980469,-0.75 0.292526,-0.270524 0.372923,-0.377044 0.552734,-0.722656 0.115865,-0.222684 0.241739,-0.519349 0.28125,-0.658203 0.101366,-0.356146 0.150379,-1.093486 0.09766,-2.777344 l 0,-4.904297 C 18.950922,9.0549507 18.586053,8.9629051 18.460938,9.015625 Z"/>
 <path style="fill:#ffffff" d="M 16 6 A 10 10 0 0 0 6 16 A 10 10 0 0 0 16 26 A 10 10 0 0 0 26 16 A 10 10 0 0 0 20.732422 7.2011719 C 20.814742 7.3615836 20.887439 7.5482083 20.935547 7.7792969 A 2.0002 2.0002 0 0 1 20.978516 8.1875 L 20.978516 10.083984 A 7 7 0 0 1 23 15 A 7 7 0 0 1 16 22 A 7 7 0 0 1 9 15 A 7 7 0 0 1 15.757812 8.0078125 C 15.96929 7.7654524 16.234989 7.4657494 16.349609 7.3320312 C 16.505104 7.1506295 16.655782 6.9840173 16.796875 6.8359375 C 16.867421 6.7618976 16.933838 6.6934544 17.017578 6.6152344 C 17.101313 6.5370141 16.878717 6.5110296 17.683594 6.171875 C 17.706052 6.1624116 17.716601 6.1631351 17.738281 6.1542969 A 10 10 0 0 0 16 6 z M 18.460938 8.015625 C 18.405497 8.038986 18.140118 8.3186412 17.869141 8.6347656 C 17.598166 8.9508893 17.004985 9.6268194 16.552734 10.138672 C 16.100484 10.650523 15.241947 11.630086 14.646484 12.314453 C 13.476651 13.658941 13.290365 13.92979 13.097656 14.568359 C 12.977302 14.967186 12.966714 15.610222 13.074219 15.984375 C 13.368965 17.010074 14.35438 17.779037 15.625 17.976562 C 15.68276 17.985563 15.881613 17.99757 16.066406 18 C 16.836325 18.01057 17.491842 17.763288 18.046875 17.25 C 18.339401 16.979476 18.419798 16.872956 18.599609 16.527344 C 18.715474 16.30466 18.841348 16.007995 18.880859 15.869141 C 18.982225 15.512995 19.031238 14.775655 18.978516 13.091797 L 18.978516 8.1875 C 18.950922 8.0549507 18.586053 7.9629051 18.460938 8.015625 z"/>
</svg>

<svg xmlns="http://www.w3.org/2000/svg" width="32" height="32"><circle style="opacity:.2" cx="16" cy="17" r="14"/><circle style="fill:#248afd" cx="16" cy="16" r="14"/><path style="opacity:.2;fill:#fff" d="M16 2A14 14 0 0 0 2 16a14 14 0 0 0 .021.586A14 14 0 0 1 16 3a14 14 0 0 1 13.979 13.414A14 14 0 0 0 30 16 14 14 0 0 0 16 2z"/><path style="opacity:.2" d="M16 7A10 10 0 0 0 6 17a10 10 0 0 0 10 10 10 10 0 0 0 10-10 10 10 0 0 0-5.268-8.799c.083.16.155.347.204.578a2 2 0 0 1 .043.409v1.896A7 7 0 0 1 23 16a7 7 0 0 1-7 7 7 7 0 0 1-7-7 7 7 0 0 1 6.758-6.992c.211-.243.477-.542.592-.676.155-.181.306-.348.447-.496.07-.074.137-.143.22-.22.084-.079-.138-.105.667-.444.022-.01.033-.009.054-.018A10 10 0 0 0 16 7zm2.46 2.016c-.055.023-.32.303-.59.619-.272.316-.865.992-1.317 1.504-.453.512-1.311 1.491-1.907 2.175-1.17 1.345-1.356 1.616-1.548 2.254-.12.4-.131 1.042-.024 1.416.295 1.026 1.28 1.795 2.551 1.993.058.009.257.02.441.023.77.01 1.426-.237 1.98-.75.293-.27.374-.377.554-.723.115-.222.241-.519.28-.658.102-.356.151-1.093.099-2.777V9.188c-.028-.133-.393-.225-.518-.172z"/><path style="fill:#fff" d="M16 6A10 10 0 0 0 6 16a10 10 0 0 0 10 10 10 10 0 0 0 10-10 10 10 0 0 0-5.268-8.799c.083.16.155.347.204.578a2 2 0 0 1 .043.409v1.896A7 7 0 0 1 23 15a7 7 0 0 1-7 7 7 7 0 0 1-7-7 7 7 0 0 1 6.758-6.992c.211-.243.477-.542.592-.676.155-.181.306-.348.447-.496.07-.074.137-.143.22-.22.084-.079-.138-.105.667-.444.022-.01.033-.009.054-.018A10 10 0 0 0 16 6zm2.46 2.016c-.055.023-.32.303-.59.619-.272.316-.865.992-1.317 1.504-.453.512-1.311 1.491-1.907 2.175-1.17 1.345-1.356 1.616-1.548 2.254-.12.4-.131 1.042-.024 1.416.295 1.026 1.28 1.795 2.551 1.993.058.009.257.02.441.023.77.01 1.426-.237 1.98-.75.293-.27.374-.377.554-.723.115-.222.241-.519.28-.658.102-.356.151-1.093.099-2.777V8.187c-.028-.132-.393-.224-.518-.171z"/></svg>
